!! 00000] TT[00
!! NN
!!!OTL: Yi zhan mingdeng zhao Beijing
!!!ARE: Asia, China,ˇGuangdong, Huidong
!! Ethnic Group: Han
!! II, 350
!!!SCT: C0241
!!!YEM: Copyright 1995, estate of Helmut Schaffrath.
**kern
*ICvox
*Ivox
!! 3/43+2 metric grouping
!! Mixed meters:  5/8; 2/4
*M2/4
*k[f#c#g#d#]
*E:
{8e
8e
8b
8g#
8g#
=1
16e
16f#
16g#
16c#
8e
8e}
=2
{16cc#
16b
8g#
8g#
8cc#
=3
8g#
16b
16g#
8b
16b
16cc#}
=4
{16e
16f#
8g#
8.e
16f#
=5
4g#
8g#
8f#
8f#
16f#
16g#
=6
2b}
=7
{4.e
8c#
=8
8.B
16c#
8e
16b
16g#
16g#
16f#
16g#
16b
=9
2e}
==
!!!AGN: Xiaodiao, YÅge, Ladaditu diao. Xin minge
!! Wird aber nicht als Arbeitslied gewertet, sonder als Xiaodiao.
!!!ONB: ESAC (Essen Associative Code) Database: CHINA
!!!AMT: irregular
!!!AIN: vox
!!!EED: Helmut Schaffrath
!!!EEV: 1.0
*-
